assets/assets/images/icons/icon-details-white.svg

<svg xmlns="http://www.w3.org/2000/svg" width="20" height="20"><g fill="#FFF"><path d="M10 0C4.5 0 0 4.5 0 10c0 .6.4 1 1 1s1-.4 1-1c0-4.4 3.6-8 8-8s8 3.6 8 8c0 .6.4 1 1 1s1-.4 1-1c0-5.5-4.5-10-10-10z"/><path d="M15.5 10c0-3-2.5-5.5-5.5-5.5S4.5 7 4.5 10 7 15.5 10 15.5s5.5-2.5 5.5-5.5zm-4.3-2.5c.7 0 1.2.6 1.2 1.2s-.5 1.3-1.2 1.3S10 9.4 10 8.8s.6-1.3 1.2-1.3zM6.5 10c0-1.5.9-2.7 2.2-3.2-.4.5-.7 1.2-.7 2 0 1.8 1.5 3.2 3.2 3.2.8 0 1.4-.3 2-.7-.5 1.3-1.8 2.2-3.2 2.2-1.9 0-3.5-1.6-3.5-3.5z"/><path d="M15.7 15.7C14.1 17.2 12.1 18 10 18s-4.1-.8-5.7-2.3c-.4-.4-1-.4-1.4 0-.4.4-.4 1 0 1.4C4.8 19 7.3 20 10 20s5.2-1 7.1-2.9c.4-.4.4-1 0-1.4-.4-.4-1.1-.4-1.4 0z"/></g></svg>

<?xml version="1.0" encoding="utf-8"?>
<!-- Generator: Adobe Illustrator 18.1.1, SVG Export Plug-In . SVG Version: 6.00 Build 0)  -->
<svg version="1.1" id="Layer_1" xmlns="http://www.w3.org/2000/svg" xmlns:xlink="http://www.w3.org/1999/xlink" x="0px" y="0px"
	 width="20px" height="20px" viewBox="0 0 20 20" enable-background="new 0 0 20 20" xml:space="preserve">
<g>
	<path fill="#FFFFFF" d="M10,0C4.5,0,0,4.5,0,10c0,0.6,0.4,1,1,1s1-0.4,1-1c0-4.4,3.6-8,8-8s8,3.6,8,8c0,0.6,0.4,1,1,1s1-0.4,1-1
		C20,4.5,15.5,0,10,0z"/>
	<path fill="#FFFFFF" d="M15.5,10c0-3-2.5-5.5-5.5-5.5S4.5,7,4.5,10S7,15.5,10,15.5S15.5,13,15.5,10z M11.2,7.5
		c0.7,0,1.2,0.6,1.2,1.2S11.9,10,11.2,10S10,9.4,10,8.8S10.6,7.5,11.2,7.5z M6.5,10c0-1.5,0.9-2.7,2.2-3.2C8.3,7.3,8,8,8,8.8
		c0,1.8,1.5,3.2,3.2,3.2c0.8,0,1.4-0.3,2-0.7c-0.5,1.3-1.8,2.2-3.2,2.2C8.1,13.5,6.5,11.9,6.5,10z"/>
	<path fill="#FFFFFF" d="M15.7,15.7C14.1,17.2,12.1,18,10,18s-4.1-0.8-5.7-2.3c-0.4-0.4-1-0.4-1.4,0c-0.4,0.4-0.4,1,0,1.4
		C4.8,19,7.3,20,10,20s5.2-1,7.1-2.9c0.4-0.4,0.4-1,0-1.4C16.7,15.3,16,15.3,15.7,15.7z"/>
</g>
</svg>
